X:1
C: J. Turle
M: none
L:1/2
%%staves [(S A) (T B)]
K:Ab
V:S clef=treble
c2 | B G | A2 || e2 | c A | F B | E2 || F2 | F F | d2 || B2 | c E | F G | A2 |]
V:A clef=treble
E2 | F E | E2 || E2 | E E | E =D | E2 || B,2 | D E | D2 || E2 | C E | E E | E2 |]
V:T clef=bass octave=-1
c2 | d B | c2 || B2 | A e | c B | G2 || F2 | F c | B2 || E2 | E A | A e/2 d/2 | c2 |]
V:B clef=bass octave=-1
A2 | D E | A2 || G2 | A C | A, B, | E2 || D2 | B, =A, | B,2 || G,2 | A, C | D E | A,2 |]
